X:2210 
T:Drogh Vraane 
C:T Cowell, Marown (aged 83) 21 Sept 1898
C:Traditional
O:Isle of Man
Z:Clague collection
B:Kiaull Vannin #210 
L:1/4
M:4/4 
Q:70 
K:G 
E|A B c d|c/B/ A2 e|e e/d/ c B|A3 E|A B c d|c/B/ A2 B|c d e e|(d c2) c/d/| 
e c d e|c/B/ A2 e|e e/d/ c B|A3 E|A B c d|c/B/ A2 e|e e/d/ c B|A3|| 

